X:7
T:The Scolding Wife
M:2/4
L:1/16
Z:jason
B:Playing of Bob Walters, 1954
K:A
AB | [c3e3][ec] [ec][eB][eA][eB] | [e2c2][e2c2] [e2B2][e2A2] | [e3c3][eB] [eA][eB][eA]F | [A2E2][A2E2] [A2F2][A2A2] |
[e3c3][ec] [ec][eB][eA][eB] | [e2c2][e2c2] [e2B2][e2A2] | [e3c3][eB] [eA]BAF | [A2E2][A2E2] [A2F2][A2A2] :|
|: [E2C2][E2C2] E2CB, | [EA,][EB,][EC][EA,] B,2A,B, | C2C2 [E2C2]FG | AFED [EC][EA,][EA,][EA,] |
[E2C2][E2C2] E2CB, | [EA,][EB,][EC][EA,] B,2A,B, | C2C2 [E2C2]FG | AFED [EC][EA,][E2A,2] :|

